16x16/apps/net.sourceforge.Teo.svg

<svg xmlns="http://www.w3.org/2000/svg" width="16" height="16" version="1">
 <rect style="fill:#f4f4f7" width="8.8" height="8.684" x="3.6" y="4.16"/>
 <path style="fill:#3b5ade" d="M 8.0149,0.99999 C 7.9666,0.99809 7.9183,1.0055 7.8728,1.0217 L 0.25372,3.7378 C 0.10154,3.7921 -1.1442e-4,3.9372 0,4.0999 V 7.3258 C -1.6798e-4,7.5909 0.26014,7.7764 0.50818,7.6879 L 8,5.0161 15.492,7.6879 C 15.74,7.7764 16,7.5909 16,7.3258 V 4.0999 C 16,3.9372 15.898,3.7921 15.746,3.7378 L 8.1272,1.0217 C 8.0911,1.0088 8.0532,1.0015 8.0149,0.99999 Z"/>
 <rect style="fill:#3b5ade" width="3" height="6.316" x="2" y="5.34"/>
 <path style="fill:#3b5ade" d="M 8.0149,16 C 7.9666,16.002 7.9183,15.994 7.8728,15.978 L 0.25372,13.262 C 0.10154,13.208 -1.1442e-4,13.063 0,12.9 V 9.6736 C -1.6798e-4,9.4085 0.26014,9.223 0.50818,9.3115 L 8,11.984 15.492,9.3115 C 15.74,9.223 16,9.4085 16,9.6736 V 12.9 C 16,13.063 15.898,13.208 15.746,13.262 L 8.1272,15.978 C 8.0911,15.991 8.0532,15.998 8.0149,16 Z"/>
 <rect style="fill:#3b5ade" width="3" height="6.316" x="11" y="5.34"/>
 <path style="fill:#b6afff" d="M 1,10.548 V 12.467 L 8,14.961 V 12.982 A 1.0001,1.0001 0 0 1 7.6641,12.926 Z"/>
 <path style="fill:#b6afff" d="M 8,2.0388 V 4.0173 A 1.0001,1.0001 0 0 1 8.3359,4.0739 L 15,6.4509 V 4.5329 Z"/>
</svg>

<svg xmlns="http://www.w3.org/2000/svg" width="16" height="16" version="1"><path style="fill:#f4f4f7" d="M3.6 4.16h8.8v8.684H3.6z"/><path style="fill:#3b5ade" d="M8.015 1a.38.38 0 0 0-.142.022L.253 3.738A.384.384 0 0 0 0 4.1v3.226c0 .265.26.45.508.362L8 5.016l7.492 2.672A.381.381 0 0 0 16 7.326V4.1a.384.384 0 0 0-.254-.362L8.127 1.022A.378.378 0 0 0 8.015 1z"/><path style="fill:#3b5ade" d="M2 5.34h3v6.316H2z"/><path style="fill:#3b5ade" d="M8.015 16a.382.382 0 0 1-.142-.022l-7.62-2.716A.383.383 0 0 1 0 12.9V9.674c0-.265.26-.451.508-.362L8 11.984l7.492-2.672a.381.381 0 0 1 .508.362V12.9a.384.384 0 0 1-.254.362l-7.619 2.716a.391.391 0 0 1-.112.022z"/><path style="fill:#3b5ade" d="M11 5.34h3v6.316h-3z"/><path style="fill:#b6afff" d="M1 10.548v1.919l7 2.494v-1.979a1 1 0 0 1-.336-.056zM8 2.039v1.978a1 1 0 0 1 .336.057L15 6.45V4.533z"/></svg>
